X:1
T:Title
%%score { 1 | 2 }
L:1/8
M:6/8
K:Bb
V:1 treble nm="Grand Piano"
V:2 bass 
V:1
 z3 z2[Q:1/4=81] F | [Fd][Ec][DB] [DF][Dc][DB] | BA_A =A2 F | edc GBA | [EG]2 [DF] [DF]2 [DF] | %5
 [Fd][Ec][DB] [DF][Dc][DB] |[M:5/8] BA_A =A2 |[M:1/8] c |[M:3/4] [=Ec][EG] [EA][EB] [EA][EG] | %9
 [Ec]3 [EF]3 |[M:1/8] [DF] |[M:3/4] [DF][DG] [DA][DB] [Dc][DB] | B2 A A2 A | eG GG AG | %14
 [EG]2 [DF] [DF]2 [DF] | [FB][FB] [FB] [Fc]2 [Fc] | [Fd][Fd] dd [Ff][Ge] | [Fd]3 [Ec]3 | [DB]6 |] %19
V:2
 z3 z2 F, | [B,,B,][B,,B,][B,,B,] [B,,B,][B,,B,][B,,B,] | [F,CE][F,CE][F,=B,E] [F,CE]2 [F,A,] | %3
 [F,A,G][F,A,F][F,A,E] [F,A,E][F,CE][F,CE] | [B,,B,]2 [B,,B,] [B,,B,]2 [B,,B,] | %5
 [B,,B,][B,,B,][B,,B,] [B,,B,][B,,B,][B,,B,] |[M:5/8] [F,CE][F,CE][F,=B,E] [F,CE]2 | %7
[M:1/8] [F,A,E] |[M:3/4] [C,G,][C,B,] [C,A,][C,G,] [C,C][C,B,] | [F,A,]3 [F,A,]3 |[M:1/8] [B,,B,] | %11
[M:3/4] [B,,B,][B,,B,] [B,,B,][B,,B,] [B,,B,][B,,B,] | [F,CE]2 [F,CE] [F,CE]2 [F,CE] | %13
 [F,A,E][F,CE] [F,CE][F,CE] [F,CF][F,CE] | [B,,B,]2 [B,,B,] [B,,B,]2 [B,,B,] | %15
 [D,B,][D,B,] [D,B,] [F,A,]2 [F,A,] | [B,,B,][D,B,][K:treble] [F,B,F][B,F][K:bass] [D,B,][E,B,] | %17
 [F,B,]3 [F,A,]3 | [B,,F,]6 |] %19

